X: 19
T: the Iron Bridge
%%VWML:Button1818-2292c-p10-0
F:http://www.vwml.org/record/Button1818/2292c/p10
B: "Le Sylphe, Twenty Four Country Dances with Figures for the Year 1818", Button & Whitaker, p.10 #1
F: http://www.vwml.org/browse/browse-collections-dance-tune-books/browse-button1818
Z: 2014 John Chambers <jc:trillian.mit.edu>
N: The Figures by Mr WILSON.
M: 3/8
L: 1/16
K: D
% - - - - - - - - - - - - - - - - - - - - - - - - - - - - -
A2 |\
.f2(ag)e2 | .c2(ba)a2 | .e2(gf)d2 | c2(eg)b2 |\
f2(ag)e2 | c2(ba)a2 | e2(gf)e2 | d4 :|
|: a2 |\
a2(^ga)=g2 | f2(^ef)=e2 | d2ceca | g2f2 a2 |\
a2(^ga)=g2 | f2(^ef)=e2 | (dcdefe) | d4 :|
% - - - - - - - - - - Dance description - - - - - - - - - -
W: WALTZ FIGURE        (Each strain repeated
W:
W:The 1st Lady turns the 2d Gent: a la waltz 1st Gent: turns 2d Lady
W:a la waltz |: & whole poussette with sauteuse step |: .
W:
W: COUNTRY DANCE FIGURE        (Each strain repeated
W:
W:The 3 Ladies & 3 Gent: set & lead thro' set & back again |: lead down
W:the middle up again & hands 4 round with the top couple |: .
W:
%%sep 1 1 450
T: Madam Saqui's Waltz
%R: waltz
B: "Le Sylphe, Twenty Four Country Dances with Figures for the Year 1818", Button & Whitaker, p.10 #2
F: http://www.vwml.org/browse/browse-collections-dance-tune-books/browse-button1818
Z: 2014 John Chambers <jc:trillian.mit.edu>
N: The Figures by Mr WILSON.
M: 3/8
L: 1/16
K: C
% - - - - - - - - - - - - - - - - - - - - - - - - - - - - -
|:\
c2G2c2 | B6 | c2G2c2 | d6 | e2d2c2 | c2B2A2 |\
G2A2B2 | c6 :||: e6 | e6 | e6 | e6 |
{e}f6 | e2d2c2 | B2A2B2 | c6 :||:[K:F] c2d2e2 | f2(fg).a2 |\
g2(ga).b2 | a2(ab).c'2 | c2d2e2 | f2(fg).a2 | f2(fgbg) | f2z2 :|
% - - - - - - - - - - Dance description - - - - - - - - - -
W: WALTZ FIGURE        (Each strain repeated)
W:
W:The 3 Gent: turn the 3 Ladies a la waltz |: whole poussette
W:with sauteuse step |: & swing corners a la waltz |: .
W:
W: COUNTRY DANCE FIGURE        (Each strain repeated)
W:
W:Hands 3 round on the Ladies side hands 3 round on the Gent:
W:side |: promenade 3 Cu: |: & turn corners |: .
W:
%%sep 1 1 450
